X: 29047
T: Neil Gow's Highland
R: reel
M: 4/4
K: Adorian
|:A2AF G2G2|A2AB cdec|A2AF G2GB|1 cABG EAAG:|2 cABG EAA2||
(3Bcd ef gfgd|G2BG dGBG|(3Bcd ef gfg2|ea~a2 ea~a2|
gfef gedf|gedc BG~G2|A2Bd (3efg fd|cABG EAAG||

